source/svgs/bowtie/uE96F-math-multiply-box-outline.svg

<svg xmlns="http://www.w3.org/2000/svg" viewBox="0 0 448 448"><path d="M416 416h-416v-416h416v416zm-384-32h352v-352h-352v352zm291.313-268.687l-22.625-22.625-92.688 92.687-92.688-92.688-22.625 22.625 92.688 92.688-92.688 92.688 22.625 22.625 92.688-92.688 92.688 92.688 22.625-22.625-92.688-92.688 92.688-92.687z"/></svg>

<svg xmlns="http://www.w3.org/2000/svg" viewBox="0 0 448 448"><path d="M416 416H0V0h416v416zM32 384h352V32H32v352zm291.313-268.687l-22.625-22.625L208 185.375l-92.688-92.688-22.625 22.625L185.375 208l-92.688 92.688 22.625 22.625L208 230.625l92.688 92.688 22.625-22.625L230.625 208l92.688-92.687z"/></svg>
